X: 5257
T: Broken String, The
R: reel
M: 4/4
K: Amixolydian
cA (3AAA cded|BGGB gdBd|cA (3AAA cded|Bggf aged|
cA (3AAA cded|BGGB g2fg|af (3fff gfec|dfed BA^GB:|
|:c2 eA Acde|dggf gdBd|c3B cdec|Bggf aged|
c2eA Acde|dggf g2 fg|af (3fff gfec|Bggf aged:|
|:A2 cA eAcA|(3BBB gB aBgB|(3AAA Ac eAce|dBGA BA^GB|
A (3AAA c eAcA|(3BBB gB aBgB|af (3fff gfec|dfed BA^GB:|

